flaticon/hand-gestures/tap-61.svg

<svg xmlns="http://www.w3.org/2000/svg" width="32" height="32" viewBox="0 0 24 24">
    <path d="M 18.394531 8.398438 C 18.035156 8.398438 17.675781 8.519531 17.394531 8.761719 L 17.394531 8.398438 C 17.394531 7.441406 16.636719 6.398438 15.59375 6.398438 C 15.234375 6.398438 14.875 6.519531 14.59375 6.761719 C 14.59375 5.839844 13.796875 4.800781 12.796875 4.800781 C 12.433594 4.800781 12.074219 4.921875 11.796875 5.160156 L 11.796875 2 C 11.796875 1.039062 11.035156 0 9.996094 0 C 8.953125 0 8.195312 1.039062 8.195312 2 L 8.195312 10.480469 C 7.835938 9.71875 7.355469 9 6.875 8.519531 C 6.234375 7.878906 4.953125 7.839844 4.234375 8.441406 C 4.035156 8.640625 3.355469 9.359375 4.273438 10.640625 C 5.113281 11.839844 5.796875 14.480469 5.796875 16 C 5.796875 19.199219 7.875 20.640625 8.59375 21.039062 L 8.59375 23.601562 C 8.59375 23.839844 8.753906 24 8.996094 24 C 9.234375 24 9.394531 23.839844 9.394531 23.601562 L 9.394531 20.800781 C 9.394531 20.640625 9.316406 20.519531 9.15625 20.441406 C 9.035156 20.398438 6.59375 19.238281 6.59375 16 C 6.59375 14.519531 5.953125 11.601562 4.914062 10.160156 C 4.636719 9.800781 4.394531 9.320312 4.753906 9.039062 C 5.15625 8.71875 5.953125 8.71875 6.316406 9.078125 C 7.316406 10.078125 8.195312 12.199219 8.195312 13.199219 C 8.195312 13.441406 8.355469 13.601562 8.59375 13.601562 C 8.835938 13.601562 8.996094 13.441406 8.996094 13.199219 L 8.996094 2 C 8.996094 1.441406 9.433594 0.800781 9.996094 0.800781 C 10.554688 0.800781 10.996094 1.441406 10.996094 2 L 10.996094 10.800781 C 10.996094 11.039062 11.15625 11.199219 11.394531 11.199219 C 11.636719 11.199219 11.792969 11.039062 11.792969 10.800781 L 11.792969 6.800781 C 11.792969 6.238281 12.234375 5.601562 12.792969 5.601562 C 13.355469 5.601562 13.792969 6.238281 13.792969 6.800781 L 13.792969 11.199219 C 13.792969 11.441406 13.953125 11.601562 14.195312 11.601562 C 14.433594 11.601562 14.59375 11.441406 14.59375 11.199219 L 14.59375 8.398438 C 14.59375 7.839844 15.035156 7.199219 15.59375 7.199219 C 16.15625 7.199219 16.59375 7.839844 16.59375 8.398438 L 16.59375 10.320312 C 16.59375 10.359375 16.59375 10.359375 16.59375 10.398438 L 16.59375 12 C 16.59375 12.238281 16.753906 12.398438 16.996094 12.398438 C 17.234375 12.398438 17.394531 12.238281 17.394531 12 L 17.394531 10.320312 C 17.433594 9.800781 17.875 9.199219 18.394531 9.199219 C 18.953125 9.199219 19.394531 9.839844 19.394531 10.398438 L 19.394531 16 C 19.394531 19.039062 19.394531 19.039062 18.273438 20.558594 C 18.195312 20.640625 18.195312 20.761719 18.195312 20.839844 L 18.195312 23.601562 C 18.195312 23.839844 18.355469 24 18.59375 24 C 18.835938 24 18.996094 23.839844 18.996094 23.601562 L 18.996094 20.921875 C 20.195312 19.320312 20.195312 19.121094 20.195312 16 L 20.195312 10.398438 C 20.195312 9.441406 19.433594 8.398438 18.394531 8.398438 Z M 18.394531 8.398438"/>
    <path d="M14.195312 20.398438C14.433594 20.398438 14.59375 20.238281 14.59375 20 14.59375 19.761719 14.433594 19.601562 14.195312 19.601562L12.996094 19.601562C12.753906 19.601562 12.59375 19.761719 12.59375 20 12.59375 20.238281 12.753906 20.398438 12.996094 20.398438zM14.59375 21.199219L12.59375 21.199219C12.355469 21.199219 12.195312 21.359375 12.195312 21.601562 12.195312 21.839844 12.355469 22 12.59375 22L14.59375 22C14.835938 22 14.996094 21.839844 14.996094 21.601562 14.996094 21.359375 14.835938 21.199219 14.59375 21.199219zM14.59375 21.199219"/>
</svg>

<svg xmlns="http://www.w3.org/2000/svg" width="32" height="32" viewBox="0 0 24 24">
    <path d="M18.395 8.398c-.36 0-.72.122-1 .364v-.364c0-.957-.758-2-1.801-2-.36 0-.719.122-1 .364 0-.922-.797-1.961-1.797-1.961-.363 0-.723.12-1 .36V2c0-.96-.762-2-1.8-2-1.044 0-1.802 1.04-1.802 2v8.48c-.36-.761-.84-1.48-1.32-1.96-.64-.641-1.922-.68-2.64-.079-.2.2-.88.918.038 2.2.84 1.199 1.524 3.84 1.524 5.359 0 3.2 2.078 4.64 2.797 5.04v2.562c0 .238.16.398.402.398.238 0 .399-.16.399-.398V20.8c0-.16-.079-.281-.239-.36-.12-.043-2.562-1.203-2.562-4.441 0-1.48-.64-4.398-1.68-5.84-.277-.36-.52-.84-.16-1.12.402-.321 1.2-.321 1.562.038 1 1 1.88 3.121 1.88 4.121 0 .242.16.403.398.403.242 0 .402-.16.402-.403V2c0-.559.438-1.2 1-1.2.559 0 1 .641 1 1.2v8.8c0 .24.16.4.399.4.242 0 .398-.16.398-.4v-4c0-.562.441-1.198 1-1.198.562 0 1 .636 1 1.199v4.398c0 .242.16.403.402.403.239 0 .399-.16.399-.403V8.4c0-.56.441-1.2 1-1.2.562 0 1 .64 1 1.2V12c0 .238.16.398.402.398.238 0 .399-.16.399-.398v-1.68c.039-.52.48-1.12 1-1.12.558 0 1 .64 1 1.198V16c0 3.04 0 3.04-1.122 4.559-.078.082-.078.203-.078.28v2.763c0 .238.16.398.399.398.242 0 .402-.16.402-.398v-2.68c1.2-1.602 1.2-1.8 1.2-4.922v-5.602c0-.957-.762-2-1.801-2zm0 0"/>
    <path d="M14.195 20.398c.239 0 .399-.16.399-.398 0-.238-.16-.398-.399-.398h-1.199c-.242 0-.402.16-.402.398 0 .238.16.398.402.398zm0 0M14.594 21.2h-2c-.239 0-.399.16-.399.402 0 .238.16.398.399.398h2c.242 0 .402-.16.402-.398 0-.243-.16-.403-.402-.403zm0 0"/>
</svg>
